X: 1
T:He Was a Bonnie Lad
M:C
L:1/8
Q:80
C:Traditional
S:Strathspey
K:HP
|: d/2|
{gcd}c3/2B/2{g}A3/2g/2{a}f/2a3/2{ef}e3/2c/2|
{Gdc}d3/2f/2{gef}e3/2c/2{g}B2{GdGe}B3/2d/2|  !
{gcd}c3/2B/2{g}A3/2g/2{a}f/2a3/2{ef}e3/2c/2|
{Gdc}d3/2f/2{gef}e3/2c/2{g}A2{GdGe}A:|
a/2|  !
c/2{d}A3/2{gef}e3/2A/2{gfg}f3/2A/2{gef}e3/2A/2|
{g}c/2{d}A3/2{gef}e3/2c/2{g}B2{GdGe}B3/2a/2|
c/2{d}A3/2{gef}e3/2A/2{gfg}f3/2A/2{gef}e3/2A/2|  !
{Gdc}d3/2f/2{gef}e3/2c/2{g}A2{GdGe}A|
a/2|
c/2{d}A3/2{gef}e3/2A/2{gfg}f3/2A/2{gef}e3/2A/2|
{g}c/2{d}A3/2{gef}e3/2c/2{gBG}B2{gf}g2|  !
a/2g/2f{gf}g3/2e/2{gfg}f3/2A/2{gef}e3/2A/2|
{Gdc}d3/2f/2{gef}e3/2c/2{g}A2{GdGe}A|]
